!!!OTL: Gr&uuml;ne Reben auf hohen Bergen (3-60), S. 173
!!!id: P1033
**kern
*clefG2
*k[f#]
*G:
{8.d
16g
=1
*M3/4
8g
8d
8d
8d
8g
8a
=2
*M2/4
8b
8a
4g}
=3
{8.b
16cc
=4
4dd
8cc
8b
=5yy
16g
8g
8a
8b
16g
=6
4a}
4r
=7
{4g
8a
8b
=8
8.b
16b
8.b
16dd
=9yy
16g
8dd
8cc
8b
16g
=10
*M3/4
16g
8b
8a
8b
16g
4a}
=11
{8.b
16a
=12
*M2/4
4g
8.g
16a
=13yy
16g
8g
8f#
8e
16g
=14
8.d
16a
4a}
=15
{8.b
16a
=16
*M3/4
8g
8a
8b
8a
8.g
16f#
=17
*M2/4
4g}
4r
==
*-
!!!minrhy: 16
!!!meters: 2/4 3/4 ]  ZZ[5
!!!cut: Gr&uuml;ne Reben auf hohen Bergen (3-60), S. 173
!!!reg: Lothringen
!!!trd: PINCK, Louis: Verklingende Weisen, Bd3, Metz 1933
!!!rhy1: X_.X  X_X_X_X_X_X_  X_X_X__
!!!rhy2: X_.X  X__X_X_(X_X_X_)  X__0__
!!!key: P1033  16  G 2/4 3/4 ]  ZZ[5
!!!mod: HEPTATONIK IONISCH]  AMBITUS[8
!!!kad: 12221
!!!akz: 13_52_133_1-5_11_
!!!fot: 'a__b__c__d__dw_
!!!for: 'a__b__c__d__e__
!!!fok: '^a_^d_^a_Vd_Sd_
!! PHRAS[VORWIEGEND AUFTAKTIG]
!!!fkt: Liebe, Wein
!! LOTH VKL
!! PR[13] 2K[7] 2G[16] 3K[0] 3G[2] 4A[9] 4Ü[0] 5A[2] 6K[0] 6G[0]
!! 7K[0] 7G[0] 8A[0] MEHR[0] SI[36] ABS[45] SR[22] SP[13]
!! ST[10] 2k[13] 2g[33] 3k[2] 3g[2] 4d[0] 4ü[0] 5d[0] 6k[0] 6g[0]
!! 7k[0] 7g[0] 8d[0] mehr[0] si[51] dm[-15] sr[47] sp[4]
!! 1F[42] 2F[54] 3F[4] 4F[0] LF[0] 2P[0] 3P[0] 4P[0] TRI[0] DF[3] AB[48]
!! TF[0] U3K[0] U3[0] U4[0] U4Ü[0] U5[7] U6K[0] U6[2] U7K[0] U7[9]
!! N1[26] N2K[0] N2[20] N3K[0] N3[13] N4[7] N4Ü[0] N5[13] N6K[0] N6[4]
!!!n7k: 0] N7[0] O1[0] O2K[0] O2[0] O3K[0] O3[0] HÖ[0
!!!RNB: symbol: &uuml;  = u umlaut (UTF-8: Ã¼)
